X:1
T:Title
%%score ( 1 2 ) ( 3 4 )
L:1/8
Q:1/4=110
M:4/4
K:D
V:1 treble nm="Grand Piano, Soprano"
V:2 treble 
V:3 bass nm="Choir Pad, Ring Out, O Bells, in Gladness"
V:4 bass 
V:1
 [FA]2 [Fd]2 [Fd]2 [=Fc]2 | [=FB]2 [^FA]4 [EG]2 | [DA]2 [DB]2 [DB]2 [Gc]2 | [Fd]2 [Ec]6 | %4
w: By~Caleb~Simper * * *||||
 [GA]2 [Fd]2 [Fd]2 [=Fc]2 | [=FB]2 [^FA]4 [DF]2 | [DA]2 [DB]2 [DG]2 [DF]2 | [CE]2 D6 | %8
w: ||||
 [DF]2 [DF]2 [DF]2 [CE]2 | z2 G4 z2 | F2 [FB]2 [Ec]2 [Dd]2 | [Fd]2 [=Fc]6 | %12
w: ||||
 [=FB]2 [CA]2 [DB]2 [Ec]2 | [Ed]2 [Ee]4 [Ec]2 | [EA]2 [EF]2 [DB]2 [DB]2 | A^G [CA]6 | %16
w: ||||
 z2 [Ge]4 [GB]2 | [Gc]2 [Fd]6 | z2 [Ae]2 [Ae]2 [Ad]2 | [Gc]2 [Fd]6 | [Dd]2 B2 G2 E2 | c2 A2 F2 D2 | %22
w: ||||||
 [DF]2 [DG]2 [DB]2 [DA]2 | [Gc]2 [Fd]6 | [FA]2 [GB]2 [Ec]2 [Dd]2 | [FA]2 [GB]2 [Ec]2 [Dd]2 | %26
w: ||||
 d2 A2 F2 E2 | D2 [CA]6 | z2 [Ge]4 [GB]2 | [Gc]2 [Fd]6 | z2 [Ae]2 [Ae]2 [Ad]2 | [Gc]2 [Fd]6- | %32
w: ||||||
 [Fd]2 z2 z4 |] %33
w: |
V:2
 x8 | x8 | x8 | x8 | x8 | x8 | x8 | x8 | x8 | [DF]2 D2 C2 [DF]2 | x8 | x8 | x8 | x8 | x8 | %15
 D2 z2 z4 | x8 | x8 | x8 | x8 | x8 | x8 | x8 | x8 | x8 | x8 | x8 | x8 | x8 | x8 | x8 | x8 | x8 |] %33
V:3
 [D,A,]2 [D,A,]2 [D,A,]2 [D,^G,]2 | [D,^G,]2 [D,A,]4 [D,A,]2 | [D,F,]2 G,2 G,2 [E,G,]2 | %3
 [D,A,]2 [A,,A,]6 | [A,C]2 [D,D]2 [D,A,]2 [D,^G,]2 | [D,^G,]2 [D,A,]4 [D,A,]2 | %6
 [D,F,]2 G,2 [E,B,]2 A,2 | [A,,G,]2 [D,F,]6 | [D,A,]2 [D,A,]2 [D,A,]2 [G,A,]2 | z2 B,2 z4 | %10
 F,2 [D,B,]2 [C,^A,]2 [B,,B,]2 | [B,,A,]2 [C,^G,]6 | [C,^G,]2 [F,A,]2 [F,A,]2 [E,A,]2 | %13
 [D,^G,]2 [C,A,]4 [A,,A,]2 | [C,A,]2 [D,A,]2 [B,,A,]2 [E,^G,]2 | .A,2 z2 z4 | z2 [A,C]4 [A,D]2 | %17
 z4 D4 | B,2 [A,C]2 [G,C]2 [F,D]2 | [E,E]2 [D,A,]6 | D2 B,2 G,2 E,2 | C2 A,2 F,2 D,2 | %22
 [D,A,]2 [G,B,]2 G,2 [F,A,]2 | [E,A,]2 [D,A,]6 | z8 | z8 | D2 A,2 F,2 E,2 | D,2 [A,,A,]6 | %28
 z2 [A,C]4 [A,D]2 | z4 D4 | B,2 [A,C]2 [G,C]2 [F,D]2 | [E,E]2 [D,A,]6- | [D,A,]2 z2 z4 |] %33
V:4
 x8 | x8 | x8 | x8 | x8 | x8 | x8 | x8 | x8 | [F,A,]2 E,2- [E,G,]2 [D,A,]2 | x8 | x8 | x8 | x8 | %14
 x8 | E,-[E,B,] [A,,A,]6 | x8 | [A,E]2 [D,D]2 z2 C2 | x8 | x8 | x8 | x8 | x8 | x8 | x8 | x8 | x8 | %27
 x8 | x8 | [A,E]2 [D,D]2 z2 C2 | x8 | x8 | x8 |] %33

